X: 28525
T: Munster Heart
R: waltz
M: 3/4
K: Eminor
|:EF|G2 BA FG|E4 ef/g/|ed cB AG|A2 D2 EF|
G2 BA FG|A2 D2 EF|G2 FE FG|E4:|
|:B^d|e2 e^d Bd|e2 e2 AB|de dB AB|d2 d2 ^G>A|
B2 cB AG|A2 BA GF|G2 AG FG|E4:|

